src/components/patterns/d.svg

<?xml version="1.0" encoding="UTF-8" standalone="no"?>
<svg xmlns="http://www.w3.org/2000/svg" version="1.1" width="4.001037365484107in" height="3.4670508075688766in" viewBox="0 0 288.07469031485573 249.62765814495913">
<title>kumiko - Component A</title>
<g>
  <path d="M0.037345157427836284 249.12 L144.03734515742784 0 L144.33044172407628 0.21234185504084735 L288.07469031485573 249.47999999999996 L287.7442485907794 249.6276581449591 L0 249.48000000000008 " fill="none" stroke="#000000" stroke-width="0.72" />
  <g>
    <path d="M91.73508191417412 249.5270745534949 L189.68518413159677 78.86223940938167 " fill="none" stroke="#000000" stroke-width="0.72" />
    <path d="M98.12903644114238 79.42137407917376 L196.95406809991638 249.58106847480082 " fill="none" stroke="#000000" stroke-width="0.72" />
    <path d="M242.24791711696702 170.0115513673313 L45.472783240770354 170.5166921158175 " fill="none" stroke="#000000" stroke-width="0.72" />
  </g>
  <g>
    <path d="M58.724121676293194 249.51013472871676 L173.72209760732287 51.18056703862112 " fill="none" stroke="#000000" stroke-width="0.72" />
    <path d="M114.64918687867635 50.84151382223996 L228.90864285436976 249.59746620735086 " fill="none" stroke="#000000" stroke-width="0.72" />
    <path d="M258.73872691731395 198.60835144904323 L29.481295010590884 198.18196675402802 " fill="none" stroke="#000000" stroke-width="0.72" />
  </g>
  <g>
    <path d="M29.91734515742783 249.492592591147 L159.16062952403757 25.92944858443954 " fill="none" stroke="#000000" stroke-width="0.72" />
    <path d="M129.0677670748811 25.902884624546346 L258.0574869513037 249.61242415792026 " fill="none" stroke="#000000" stroke-width="0.72" />
    <path d="M273.1269232399746 223.56452278430658 L14.893918996942261 223.4181272576402 " fill="none" stroke="#000000" stroke-width="0.72" />
  </g>
</g>
</svg>
<!--
{"app":"Cuttle","type":"Project","version":15,"payload":{"name":"Project","units":"in","hairlineStrokeWidth":0.01,"tolerance":0.001,"components":[{"name":"Component A","parameters":[],"isPassThrough":false,"isImmutable":false,"isAspectRatioLocked":false,"viewport":{"pixelsPerUnit":117.77791378428965,"center":{"x":_h0.8113312316384471,"y":0.24909253698718692,"@class":"Vec","@id":"0"},"@class":"Viewport","@id":"1"},"element":{"name":"","transform":null,"modifiers":[],"fill":null,"stroke":null,"children":[{"name":"Path 1","transform":null,"modifiers":[],"fill":null,"stroke":{"args":{"@id":"2"},"isEnabled":true,"definition":{"@builtin":"StrokeDefinition"},"@class":"Instance","@id":"3"},"children":[{"name":"outer 1","transform":null,"modifiers":[{"args":{"repetitions":{"jsCode":"3","@class":"Expression","@id":"4"},"@id":"5"},"isEnabled":true,"definition":{"@builtin":"RotationalRepeatDefinition"},"@class":"Instance","@id":"6"}],"fill":null,"stroke":null,"children":[{"name":"Anchor 3","transform":null,"modifiers":[],"fill":null,"stroke":null,"children":[],"isLocked":false,"isVisible":true,"base":{"args":{"position":{"jsCode":"Vec(_h2.00, 1.73_h.58)","@class":"Expression","@id":"7"},"@id":"8"},"isEnabled":true,"definition":{"@builtin":"AnchorDefinition"},"@class":"Instance","@id":"9"},"@class":"Element","@id":"10"},{"name":"Anchor 4","transform":null,"modifiers":[],"fill":null,"stroke":null,"children":[],"isLocked":false,"isVisible":true,"base":{"args":{"position":{"jsCode":"Vec(0, _h1.73_h0.58)","@class":"Expression","@id":"11"},"@id":"12"},"isEnabled":true,"definition":{"@builtin":"AnchorDefinition"},"@class":"Instance","@id":"13"},"@class":"Element","@id":"14"}],"isLocked":false,"isVisible":true,"base":{"args":{"@id":"15"},"isEnabled":true,"definition":{"@builtin":"GroupDefinition"},"@class":"Instance","@id":"16"},"@class":"Element","@id":"17"},{"name":"outer","transform":null,"modifiers":[{"args":{"repetitions":{"jsCode":"3","@class":"Expression","@id":"18"},"@id":"19"},"isEnabled":true,"definition":{"@builtin":"RotationalRepeatDefinition"},"@class":"Instance","@id":"20"}],"fill":null,"stroke":null,"children":[{"name":"Anchor 1","transform":null,"modifiers":[],"fill":null,"stroke":null,"children":[],"isLocked":false,"isVisible":true,"base":{"args":{"position":{"jsCode":"Vec(_h2.00, 1.73_h.58)","@class":"Expression","@id":"21"},"@id":"22"},"isEnabled":true,"definition":{"@builtin":"AnchorDefinition"},"@class":"Instance","@id":"23"},"@class":"Element","@id":"24"},{"name":"Anchor 2","transform":null,"modifiers":[],"fill":null,"stroke":null,"children":[],"isLocked":false,"isVisible":true,"base":{"args":{"position":{"jsCode":"Vec(0.00, 0.00)","@class":"Expression","@id":"25"},"handleIn":{"jsCode":"Vec(0.00, 0.00)","@class":"Expression","@id":"26"},"handleOut":{"jsCode":"Vec(0.00, 0.00)","@class":"Expression","@id":"27"},"@id":"28"},"isEnabled":true,"definition":{"@builtin":"AnchorDefinition"},"@class":"Instance","@id":"29"},"@class":"Element","@id":"30"}],"isLocked":false,"isVisible":false,"base":{"args":{"@id":"31"},"isEnabled":true,"definition":{"@builtin":"GroupDefinition"},"@class":"Instance","@id":"32"},"@class":"Element","@id":"33"},{"name":"outer 2","transform":null,"modifiers":[{"args":{"repetitions":{"jsCode":"3","@class":"Expression","@id":"34"},"@id":"35"},"isEnabled":true,"definition":{"@builtin":"RotationalRepeatDefinition"},"@class":"Instance","@id":"36"}],"fill":null,"stroke":null,"children":[{"name":"Anchor 5","transform":null,"modifiers":[],"fill":null,"stroke":null,"children":[],"isLocked":false,"isVisible":true,"base":{"args":{"position":{"jsCode":"Vec(_h0.4941288025297419, _h0.28589155921803644)","@class":"Expression","@id":"37"},"handleIn":{"jsCode":"Vec(0.000, 0.000)","@class":"Expression","@id":"38"},"handleOut":{"jsCode":"Vec(0.000, 0.000)","@class":"Expression","@id":"39"},"@id":"40"},"isEnabled":true,"definition":{"@builtin":"AnchorDefinition"},"@class":"Instance","@id":"41"},"@class":"Element","@id":"42"},{"name":"Anchor 6","transform":null,"modifiers":[],"fill":null,"stroke":null,"children":[],"isLocked":false,"isVisible":true,"base":{"args":{"position":{"jsCode":"Vec(0.004070785647895092, _h2.307050807568877)","@class":"Expression","@id":"43"},"handleIn":{"jsCode":"Vec(0.00, 0.00)","@class":"Expression","@id":"44"},"handleOut":{"jsCode":"Vec(0.00, 0.00)","@class":"Expression","@id":"45"},"@id":"46"},"isEnabled":true,"definition":{"@builtin":"AnchorDefinition"},"@class":"Instance","@id":"47"},"@class":"Element","@id":"48"}],"isLocked":false,"isVisible":false,"base":{"args":{"@id":"49"},"isEnabled":true,"definition":{"@builtin":"GroupDefinition"},"@class":"Instance","@id":"50"},"@class":"Element","@id":"51"},{"name":"outer 3","transform":null,"modifiers":[{"args":{"repetitions":{"jsCode":"3","@class":"Expression","@id":"52"},"@id":"53"},"isEnabled":true,"definition":{"@builtin":"RotationalRepeatDefinition"},"@class":"Instance","@id":"54"}],"fill":null,"stroke":null,"children":[{"name":"Anchor 7","transform":null,"modifiers":[],"fill":null,"stroke":null,"children":[],"isLocked":false,"isVisible":true,"base":{"args":{"position":{"jsCode":"Vec(_h0.49412880252974173, _h0.28589155921803633)","@class":"Expression","@id":"55"},"handleIn":{"jsCode":"Vec(0.000, 0.000)","@class":"Expression","@id":"56"},"handleOut":{"jsCode":"Vec(0.000, 0.000)","@class":"Expression","@id":"57"},"@id":"58"},"isEnabled":true,"definition":{"@builtin":"AnchorDefinition"},"@class":"Instance","@id":"59"},"@class":"Element","@id":"60"},{"name":"Anchor 8","transform":null,"modifiers":[],"fill":null,"stroke":null,"children":[],"isLocked":false,"isVisible":true,"base":{"args":{"position":{"jsCode":"Vec(0.00, 0.00)","@class":"Expression","@id":"61"},"handleIn":{"jsCode":"Vec(0.00, 0.00)","@class":"Expression","@id":"62"},"handleOut":{"jsCode":"Vec(0.00, 0.00)","@class":"Expression","@id":"63"},"@id":"64"},"isEnabled":true,"definition":{"@builtin":"AnchorDefinition"},"@class":"Instance","@id":"65"},"@class":"Element","@id":"66"}],"isLocked":false,"isVisible":false,"base":{"args":{"@id":"67"},"isEnabled":true,"definition":{"@builtin":"GroupDefinition"},"@class":"Instance","@id":"68"},"@class":"Element","@id":"69"}],"isLocked":false,"isVisible":true,"base":{"args":{"@id":"70"},"isEnabled":true,"definition":{"@builtin":"PathDefinition"},"@class":"Instance","@id":"71"},"@class":"Element","@id":"72"},{"name":"Path 4","transform":null,"modifiers":[{"args":{"repetitions":{"jsCode":"3","@class":"Expression","@id":"73"},"@id":"74"},"isEnabled":true,"definition":{"@builtin":"RotationalRepeatDefinition"},"@class":"Instance","@id":"75"}],"fill":null,"stroke":{"args":{"@id":"76"},"isEnabled":true,"definition":{"@builtin":"StrokeDefinition"},"@class":"Instance","@id":"77"},"children":[{"name":"Anchor 13","transform":null,"modifiers":[],"fill":null,"stroke":null,"children":[],"isLocked":false,"isVisible":true,"base":{"args":{"position":{"jsCode":"Vec(_h0.7264203228229682, 1.1556538132429848)","@class":"Expression","@id":"78"},"handleIn":{"jsCode":"Vec(0.00, 0.00)","@class":"Expression","@id":"79"},"handleOut":{"jsCode":"Vec(0.00, 0.00)","@class":"Expression","@id":"80"},"@id":"81"},"isEnabled":true,"definition":{"@builtin":"AnchorDefinition"},"@class":"Instance","@id":"82"},"@class":"Element","@id":"83"},{"name":"Anchor 14","transform":null,"modifiers":[],"fill":null,"stroke":null,"children":[],"isLocked":false,"isVisible":true,"base":{"args":{"position":{"jsCode":"Vec(0.6339977635301242, _h1.2146911193141434)","@class":"Expression","@id":"84"},"handleIn":{"jsCode":"Vec(0.00, 0.00)","@class":"Expression","@id":"85"},"handleOut":{"jsCode":"Vec(0.00, 0.00)","@class":"Expression","@id":"86"},"@id":"87"},"isEnabled":true,"definition":{"@builtin":"AnchorDefinition"},"@class":"Instance","@id":"88"},"@class":"Element","@id":"89"}],"isLocked":false,"isVisible":true,"base":{"args":{"@id":"90"},"isEnabled":true,"definition":{"@builtin":"PathDefinition"},"@class":"Instance","@id":"91"},"@class":"Element","@id":"92"},{"name":"Path 3","transform":null,"modifiers":[{"args":{"repetitions":{"jsCode":"3","@class":"Expression","@id":"93"},"@id":"94"},"isEnabled":true,"definition":{"@builtin":"RotationalRepeatDefinition"},"@class":"Instance","@id":"95"}],"fill":null,"stroke":{"args":{"@id":"96"},"isEnabled":true,"definition":{"@builtin":"StrokeDefinition"},"@class":"Instance","@id":"97"},"children":[{"name":"Anchor 11","transform":null,"modifiers":[],"fill":null,"stroke":null,"children":[],"isLocked":false,"isVisible":true,"base":{"args":{"position":{"jsCode":"Vec(_h1.1849058816824256, 1.155418537898844)","@class":"Expression","@id":"98"},"handleIn":{"jsCode":"Vec(0.00, 0.00)","@class":"Expression","@id":"99"},"handleOut":{"jsCode":"Vec(0.00, 0.00)","@class":"Expression","@id":"100"},"@id":"101"},"isEnabled":true,"definition":{"@builtin":"AnchorDefinition"},"@class":"Instance","@id":"102"},"@class":"Element","@id":"103"},{"name":"Anchor 12","transform":null,"modifiers":[],"fill":null,"stroke":null,"children":[],"isLocked":false,"isVisible":true,"base":{"args":{"position":{"jsCode":"Vec(0.41228822847076435, _h1.599158791130262)","@class":"Expression","@id":"104"},"handleIn":{"jsCode":"Vec(0.00, 0.00)","@class":"Expression","@id":"105"},"handleOut":{"jsCode":"Vec(0.00, 0.00)","@class":"Expression","@id":"106"},"@id":"107"},"isEnabled":true,"definition":{"@builtin":"AnchorDefinition"},"@class":"Instance","@id":"108"},"@class":"Element","@id":"109"}],"isLocked":false,"isVisible":true,"base":{"args":{"@id":"110"},"isEnabled":true,"definition":{"@builtin":"PathDefinition"},"@class":"Instance","@id":"111"},"@class":"Element","@id":"112"},{"name":"Path 2","transform":null,"modifiers":[{"args":{"repetitions":{"jsCode":"3","@class":"Expression","@id":"113"},"@id":"114"},"isEnabled":true,"definition":{"@builtin":"RotationalRepeatDefinition"},"@class":"Instance","@id":"115"}],"fill":null,"stroke":{"args":{"@id":"116"},"isEnabled":true,"definition":{"@builtin":"StrokeDefinition"},"@class":"Instance","@id":"117"},"children":[{"name":"Anchor 9","transform":null,"modifiers":[],"fill":null,"stroke":null,"children":[],"isLocked":false,"isVisible":true,"base":{"args":{"position":{"jsCode":"Vec(_h1.585, 1.1551748970992641)","@class":"Expression","@id":"118"},"@id":"119"},"isEnabled":true,"definition":{"@builtin":"AnchorDefinition"},"@class":"Instance","@id":"120"},"@class":"Element","@id":"121"},{"name":"Anchor 10","transform":null,"modifiers":[],"fill":null,"stroke":null,"children":[],"isLocked":false,"isVisible":true,"base":{"args":{"position":{"jsCode":"Vec(0.21004561620291295, _h1.9498687696605617)","@class":"Expression","@id":"122"},"handleIn":{"jsCode":"Vec(0.000, 0.000)","@class":"Expression","@id":"123"},"handleOut":{"jsCode":"Vec(0.000, 0.000)","@class":"Expression","@id":"124"},"@id":"125"},"isEnabled":true,"definition":{"@builtin":"AnchorDefinition"},"@class":"Instance","@id":"126"},"@class":"Element","@id":"127"}],"isLocked":false,"isVisible":true,"base":{"args":{"@id":"128"},"isEnabled":true,"definition":{"@builtin":"PathDefinition"},"@class":"Instance","@id":"129"},"@class":"Element","@id":"130"}],"isLocked":false,"isVisible":true,"base":{"args":{"@id":"131"},"isEnabled":true,"definition":{"@builtin":"GroupDefinition"},"@class":"Instance","@id":"132"},"@class":"Element","@id":"133"},"@class":"Component","@id":"134"}],"modifiers":[],"parameters":[],"focusedComponent":{"@ref":"134"},"focusedNode":{"parent":null,"source":{"@ref":"133"},"@class":"Node","@id":"135"},"selectedItems":[],"expandedNodes":[{"parent":{"parent":null,"source":{"@ref":"133"},"@class":"Node","@id":"136"},"source":{"@ref":"72"},"@class":"Node","@id":"137"},{"parent":{"parent":{"parent":null,"source":{"@ref":"133"},"@class":"Node","@id":"138"},"source":{"@ref":"72"},"@class":"Node","@id":"139"},"source":{"@ref":"33"},"@class":"Node","@id":"140"},{"parent":{"parent":{"parent":null,"source":{"@ref":"133"},"@class":"Node","@id":"141"},"source":{"@ref":"72"},"@class":"Node","@id":"142"},"source":{"@ref":"51"},"@class":"Node","@id":"143"},{"parent":{"parent":{"parent":null,"source":{"@ref":"133"},"@class":"Node","@id":"144"},"source":{"@ref":"72"},"@class":"Node","@id":"145"},"source":{"@ref":"69"},"@class":"Node","@id":"146"},{"parent":{"parent":null,"source":{"@ref":"133"},"@class":"Node","@id":"147"},"source":{"@ref":"130"},"@class":"Node","@id":"148"},{"parent":{"@ref":"135"},"source":{"@ref":"112"},"@class":"Node","@id":"149"},{"parent":{"@ref":"135"},"source":{"@ref":"92"},"@class":"Node","@id":"150"}],"editingModifiers":[],"_utransformCenter":null,"isGridSnappingEnabled":false,"isGeometrySnappingEnabled":true,"isTransformBoxEnabled":true,"@class":"Project","@id":"151"}}
-->

<svg xmlns="http://www.w3.org/2000/svg" width="384.1" height="332.837" viewBox="0 0 288.075 249.628"><g fill="none" stroke="#000" stroke-width=".72"><path d="M.037 249.12 144.037 0l.293.212L288.075 249.48l-.33.148L0 249.48M91.735 249.527l97.95-170.665M98.129 79.421l98.825 170.16M242.248 170.012l-196.775.505"/><g><path d="M58.724 249.51 173.722 51.18M114.65 50.842l114.259 198.755M258.739 198.608l-229.258-.426"/></g><g><path d="M29.917 249.493 159.161 25.929M129.068 25.903l128.99 223.71M273.127 223.565l-258.233-.147"/></g></g></svg>
